X: 4
T: Lady On The Island, The
Z: JACKB
S: https://thesession.org/tunes/938#setting29391
R: reel
M: 4/4
L: 1/8
K: Dmaj
|:BAFB AFEF | D2FA BAFd | BAFB A3B | defd efdB |
BAFB AFEF | D2 FA BAdB | BAFB AFAB | defd e3f ||
|:d2fd efge | afdf edBA | d2fd efge |afdf e3f|
d2fd efge | afdf edBA |defg a3b | afdf efdB ||
